packages/astro-components-stencil/src/icons/zoom-in.svg

<svg width="24" height="24" viewBox="0 0 24 24" fill="none" xmlns="http://www.w3.org/2000/svg">
<path fill-rule="evenodd" clip-rule="evenodd" d="M15.5 14H14.71L14.43 13.73C15.63 12.33 16.25 10.42 15.91 8.39C15.44 5.61 13.12 3.39 10.32 3.05C6.09002 2.53 2.54002 6.09 3.05002 10.32C3.39002 13.12 5.61002 15.44 8.39002 15.91C10.42 16.25 12.33 15.63 13.73 14.43L14 14.71V15.5L18.26 19.75C18.67 20.16 19.33 20.16 19.74 19.75L19.75 19.74C20.16 19.33 20.16 18.67 19.75 18.26L15.5 14ZM9.50002 14C7.01002 14 5.00002 11.99 5.00002 9.5C5.00002 7.01 7.01002 5 9.50002 5C11.99 5 14 7.01 14 9.5C14 11.99 11.99 14 9.50002 14ZM9.00002 7.5C9.00002 7.22 9.22002 7 9.50002 7C9.78002 7 10 7.22 10 7.5V9H11.5C11.78 9 12 9.22 12 9.5C12 9.78 11.78 10 11.5 10H10V11.5C10 11.78 9.78002 12 9.50002 12C9.22002 12 9.00002 11.78 9.00002 11.5V10H7.50002C7.22002 10 7.00002 9.78 7.00002 9.5C7.00002 9.22 7.22002 9 7.50002 9H9.00002V7.5Z" fill="black"/>
</svg>

<svg xmlns="http://www.w3.org/2000/svg" viewBox="0 0 24 24"><g xmlns="http://www.w3.org/2000/svg" id="zoom-in" fill-rule="nonzero">
            <path d="M15.5 14h-.79l-.28-.27a6.5 6.5 0 001.48-5.34c-.47-2.78-2.79-5-5.59-5.34-4.23-.52-7.78 3.04-7.27 7.27.34 2.8 2.56 5.12 5.34 5.59a6.5 6.5 0 005.34-1.48l.27.28v.79l4.26 4.25c.41.41 1.07.41 1.48 0l.01-.01c.41-.41.41-1.07 0-1.48L15.5 14zm-6 0C7.01 14 5 11.99 5 9.5S7.01 5 9.5 5 14 7.01 14 9.5 11.99 14 9.5 14zm0-7c-.28 0-.5.22-.5.5V9H7.5c-.28 0-.5.22-.5.5s.22.5.5.5H9v1.5c0 .28.22.5.5.5s.5-.22.5-.5V10h1.5c.28 0 .5-.22.5-.5s-.22-.5-.5-.5H10V7.5c0-.28-.22-.5-.5-.5z"/>
        </g></svg>
